X:609
T:Sandy Duff
B:Scots Guards, Standard Settings
Z:Nigel Gatherer
L:1/8
M:4/4
K:A
e | a2  e<a c>AA>a | c<Ae>A  c>AA>e |\
    a2  e<a c>AA>a | B<=Gd>G B>GG>e |
    a2  e<a c>AA>a | c<Ae>A  c>AA>c |\
    =g2 f<g a>ef>d | B<=Gd>G B>GG  ||
a | c<Ae>A  f>Ae>d | c<Ae>A  c>AA>a |\
    c<Ae>A  f>Ae>d | B<=Gd>G B>GG>a |
    c<Ae>A  f>Ae>d | c<Ae>A  c>AA>c |\
    =g2 f<g a>ef>d | B<=Gd>G B>GG  |]
<end>
<start>
